public/library/trace-finance-icon-light.svg

<svg width="322" height="42" viewBox="0 0 322 42" fill="none" xmlns="http://www.w3.org/2000/svg">
<path d="M53.5011 22.9349L56.474 17.1797H48.4676V10.5803H41.6677V31.0354C41.6677 34.4166 42.2082 36.57 43.4775 38.2294C45.21 40.5172 48.1249 41.7258 51.9134 41.7258C53.2846 41.7397 54.6519 41.5785 55.9817 41.2462L56.141 41.1886L55.0889 35.4334L54.8862 35.4813C54.0383 35.6291 53.1796 35.7077 52.3188 35.7163C50.8999 35.7163 49.8575 35.347 49.2156 34.618C48.6992 34.0089 48.4772 33.1552 48.4772 31.7404V22.9349H53.5011Z" fill="black"/>
<path d="M75.2862 16.8437C74.6484 16.7361 74.0027 16.6816 73.3558 16.6807C70.6725 16.6807 68.1437 17.6399 66.5993 19.2369V17.1699H60.0408V41.2459H66.8455V26.2056C67.608 24.8723 69.7073 22.9347 72.4581 22.9347C73.2161 22.9172 73.9733 22.9945 74.7119 23.1649L74.9435 23.2416L75.735 16.9061L75.2862 16.8437Z" fill="black"/>
<path d="M121.654 32.4403C121.051 33.3612 120.23 34.121 119.262 34.6528C118.294 35.1846 117.21 35.4723 116.105 35.4906C112.393 35.4906 109.7 32.8623 109.7 29.2557C109.686 28.4304 109.838 27.6105 110.148 26.8445C110.457 26.0785 110.918 25.3818 111.503 24.7954C112.087 24.209 112.784 23.7448 113.552 23.4302C114.32 23.1155 115.144 22.9568 115.974 22.9633C117.023 22.9722 118.054 23.226 118.986 23.7042C119.917 24.1824 120.722 24.8717 121.336 25.7163L121.466 25.8841L126.292 21.6684L126.176 21.5197C124.95 20.0065 123.394 18.789 121.626 17.9584C119.859 17.1278 117.925 16.7057 115.969 16.7237C108.648 16.7237 102.91 22.2343 102.91 29.2701C102.91 36.397 108.504 41.7686 115.94 41.7686C120.588 41.7686 124.188 40.0036 126.939 36.3682L127.055 36.21L121.804 32.306L121.654 32.4403Z" fill="black"/>
<path d="M138.859 16.6807C132.103 16.6807 127.035 22.0762 127.035 29.2271C127.035 36.5842 132.262 41.7255 139.747 41.7255C143.632 41.7255 147.469 40.0709 149.703 37.4091L149.824 37.27L145.9 33.3852L145.76 33.5339C145.181 34.1622 143.038 36.2053 139.897 36.2053C136.62 36.2053 134.106 34.0711 133.666 30.9872H150.162L150.191 30.8242C150.296 30.216 150.346 29.5996 150.34 28.9825C150.34 22.0858 145.297 16.6807 138.859 16.6807ZM138.859 22.2009C139.934 22.2032 140.974 22.5804 141.798 23.2666C142.622 23.9529 143.177 24.9048 143.367 25.9562H133.97C134.246 24.8776 134.878 23.9219 135.764 23.2413C136.65 22.5607 137.739 22.1944 138.859 22.2009V22.2009Z" fill="black"/>
<path d="M169.113 16.6324C169.113 14.4933 169.432 13.654 169.953 13.0018C170.682 12.1433 171.84 11.7068 173.394 11.7068C174.025 11.7119 174.654 11.7908 175.266 11.9418L175.474 11.9994L176.531 6.1866L176.352 6.14344C175.091 5.82469 173.793 5.67469 172.492 5.69741C169.69 5.62746 166.972 6.64606 164.915 8.53666C163.1 10.2776 162.289 12.6996 162.289 16.3878V41.2456H169.094V22.9344H180.541V41.2456H187.341V17.1695H169.113V16.6324Z" fill="black"/>
<path d="M183.939 4.71904C183.098 4.74073 182.283 5.00826 181.594 5.48817C180.906 5.96808 180.375 6.63906 180.068 7.41717C179.762 8.19528 179.693 9.04599 179.87 9.86287C180.047 10.6798 180.463 11.4265 181.065 12.0098C181.667 12.5931 182.429 12.987 183.256 13.1422C184.082 13.2974 184.936 13.2071 185.711 12.8825C186.486 12.5579 187.147 12.0134 187.612 11.3172C188.077 10.621 188.325 9.80399 188.326 8.96832C188.324 8.40145 188.208 7.84063 187.986 7.31866C187.763 6.79669 187.438 6.32404 187.03 5.92838C186.621 5.53271 186.138 5.22196 185.607 5.01431C185.076 4.80666 184.509 4.70628 183.939 4.71904V4.71904Z" fill="black"/>
<path d="M204.971 16.6809C202.604 16.664 200.299 17.4338 198.422 18.8679V17.1701H191.864V41.2462H198.668V25.7311C199.341 24.8857 200.193 24.1973 201.162 23.7142C202.132 23.2311 203.197 22.9651 204.281 22.935C205.556 22.8826 206.8 23.3344 207.741 24.1915C208.706 25.1507 209.112 26.4313 209.112 28.508V41.2462H215.912V28.9828C215.912 25.1987 215.135 22.5992 213.402 20.5609C212.369 19.3392 211.078 18.3583 209.621 17.6878C208.164 17.0172 206.577 16.6735 204.971 16.6809V16.6809Z" fill="black"/>
<path d="M260.885 16.6804C258.516 16.6623 256.209 17.4322 254.331 18.8674V17.1696H247.778V41.2456H254.577V25.7305C255.251 24.8845 256.103 24.1957 257.074 23.7126C258.044 23.2295 259.11 22.9639 260.195 22.9344C261.469 22.8833 262.711 23.3351 263.65 24.191C264.616 25.1502 265.021 26.4307 265.021 28.5074V41.2456H271.821V28.9822C271.821 25.1981 271.049 22.5987 269.311 20.5604C268.279 19.3388 266.989 18.3579 265.533 17.6873C264.077 17.0168 262.49 16.673 260.885 16.6804V16.6804Z" fill="black"/>
<path d="M292.64 32.4403C292.037 33.3612 291.215 34.121 290.248 34.6528C289.28 35.1846 288.196 35.4723 287.09 35.4906C283.379 35.4906 280.686 32.8623 280.686 29.2557C280.672 28.4304 280.824 27.6105 281.134 26.8445C281.443 26.0785 281.904 25.3818 282.488 24.7954C283.073 24.209 283.77 23.7448 284.538 23.4302C285.306 23.1155 286.129 22.9568 286.96 22.9633C288.008 22.9718 289.04 23.2254 289.971 23.7037C290.903 24.1819 291.708 24.8714 292.322 25.7163L292.452 25.8841L297.278 21.6684L297.162 21.5197C295.935 20.0065 294.38 18.789 292.612 17.9584C290.844 17.1278 288.91 16.7057 286.955 16.7237C279.634 16.7237 273.901 22.2343 273.901 29.2701C273.901 36.397 279.489 41.7686 286.931 41.7686C291.583 41.7686 295.179 40.0036 297.929 36.3682L298.05 36.21L292.795 32.306L292.64 32.4403Z" fill="black"/>
<path d="M309.831 16.6807C303.074 16.6807 298.002 22.0762 298.002 29.2271C298.002 36.5842 303.234 41.7255 310.714 41.7255C314.604 41.7255 318.436 40.0709 320.67 37.4091L320.791 37.27L316.867 33.3852L316.727 33.5339C316.148 34.1622 314.005 36.2053 310.864 36.2053C307.587 36.2053 305.072 34.0711 304.633 30.9872H321.129L321.157 30.8242C321.265 30.2161 321.316 29.5997 321.312 28.9825C321.331 22.0858 316.288 16.6807 309.831 16.6807ZM304.961 25.9562C305.235 24.88 305.863 23.9257 306.745 23.2452C307.628 22.5647 308.714 22.1971 309.831 22.2009C310.905 22.2043 311.944 22.582 312.766 23.2682C313.589 23.9543 314.144 24.9056 314.333 25.9562H304.961Z" fill="black"/>
<path d="M93.7891 18.868C91.8249 17.4181 89.4358 16.6497 86.9892 16.681C80.3052 16.681 75.0641 22.1916 75.0641 29.2274C75.0499 32.3174 76.1567 35.3091 78.1817 37.654C79.3324 38.9398 80.745 39.9678 82.3259 40.6698C83.9067 41.3718 85.6197 41.7318 87.3512 41.7259C88.7379 41.7327 90.1123 41.467 91.3954 40.9441L91.516 40.8961V37.1696L93.8566 39.2895L95.9898 41.2463H100.333V17.1702H93.7891V18.868ZM87.8338 22.935C88.9391 22.9292 90.0306 23.1788 91.0223 23.664C92.0139 24.1493 92.8785 24.8569 93.5478 25.7311V32.6805C92.9117 33.557 92.0738 34.2694 91.1041 34.7584C90.1344 35.2473 89.0611 35.4985 87.9737 35.491C84.4942 35.491 81.8688 32.8052 81.8688 29.2562C81.8688 25.1412 84.9382 22.935 87.8338 22.935Z" fill="black"/>
<path d="M237.093 18.868C235.129 17.4181 232.74 16.6497 230.293 16.681C223.609 16.681 218.368 22.1916 218.368 29.2274C218.35 32.3156 219.451 35.307 221.471 37.654C222.622 38.9398 224.034 39.9678 225.615 40.6698C227.196 41.3718 228.909 41.7318 230.64 41.7259C232.027 41.7327 233.402 41.467 234.685 40.9441L234.805 40.8961V37.1696C235.158 37.4814 235.848 38.1288 237.146 39.2895L239.294 41.2463H243.637V17.1702H237.093V18.868ZM231.133 22.935C232.238 22.9292 233.33 23.1788 234.321 23.664C235.313 24.1493 236.177 24.8569 236.847 25.7311V32.6805C236.211 33.5563 235.374 34.2684 234.405 34.7573C233.436 35.2462 232.364 35.4977 231.278 35.491C227.798 35.491 225.173 32.8052 225.173 29.2562C225.173 25.1412 228.242 22.935 231.133 22.935V22.935Z" fill="black"/>
<path fill-rule="evenodd" clip-rule="evenodd" d="M18.1892 16.6039L22.8801 21.256L27.5083 16.671L22.8174 12.0189L18.1892 16.6039ZM23.0056 0L18.3388 4.65215L29.0043 15.2322L33.6952 10.5801L23.0056 0Z" fill="#00F2B1"/>
<path fill-rule="evenodd" clip-rule="evenodd" d="M15.4771 4.65215L10.7862 0L6.15318 4.58501L10.8441 9.23716L15.4771 4.65215ZM0 10.6808L10.6655 21.256L15.3564 16.6039L4.6909 6.05259L0 10.6808Z" fill="#48E0FF"/>
</svg>

<svg xmlns="http://www.w3.org/2000/svg" width="322" height="42" fill="none" viewBox="0 0 322 42"><path fill="#000" d="m53.501 22.935 2.973-5.755h-8.006v-6.6h-6.8v20.455c0 3.382.54 5.535 1.81 7.194 1.732 2.288 4.647 3.497 8.435 3.497a16 16 0 0 0 4.069-.48l.159-.057-1.052-5.756-.203.048q-1.274.222-2.567.235c-1.42 0-2.462-.369-3.103-1.098-.517-.61-.739-1.463-.739-2.878v-8.805zM75.286 16.844a11.7 11.7 0 0 0-1.93-.163c-2.683 0-5.212.959-6.757 2.556V17.17h-6.558v24.076h6.805v-15.04c.762-1.334 2.861-3.271 5.612-3.271a9 9 0 0 1 2.254.23l.231.077.792-6.336zM121.654 32.44a6.73 6.73 0 0 1-2.392 2.213 6.8 6.8 0 0 1-3.157.838c-3.712 0-6.405-2.629-6.405-6.235a6.17 6.17 0 0 1 1.803-4.46 6.2 6.2 0 0 1 2.049-1.366 6.3 6.3 0 0 1 2.422-.467 6.7 6.7 0 0 1 3.012.741 6.7 6.7 0 0 1 2.35 2.012l.13.168 4.826-4.216-.116-.148a12.9 12.9 0 0 0-4.55-3.562 13 13 0 0 0-5.657-1.234c-7.321 0-13.059 5.51-13.059 12.546 0 7.127 5.594 12.499 13.03 12.499 4.648 0 8.248-1.765 10.999-5.4l.116-.159-5.251-3.904zM138.859 16.68c-6.756 0-11.824 5.396-11.824 12.547 0 7.357 5.227 12.498 12.712 12.498 3.885 0 7.722-1.654 9.956-4.316l.121-.139-3.924-3.885-.14.149c-.579.628-2.722 2.671-5.863 2.671-3.277 0-5.791-2.134-6.231-5.218h16.496l.029-.163a10.2 10.2 0 0 0 .149-1.841c0-6.897-5.043-12.302-11.481-12.302m0 5.52a4.6 4.6 0 0 1 2.939 1.067 4.56 4.56 0 0 1 1.569 2.69h-9.397a5 5 0 0 1 1.794-2.716 5.03 5.03 0 0 1 3.095-1.04M169.113 16.632c0-2.139.319-2.978.84-3.63.729-.859 1.887-1.295 3.441-1.295.631.005 1.26.084 1.872.235l.208.057 1.057-5.812-.179-.044a14.7 14.7 0 0 0-3.86-.446c-2.802-.07-5.52.95-7.577 2.84-1.815 1.74-2.626 4.163-2.626 7.85v24.859h6.805V22.934h11.447v18.312h6.8V17.169h-18.228z"/><path fill="#000" d="M183.939 4.719a4.3 4.3 0 0 0-2.345.77 4.233 4.233 0 0 0-.529 6.522 4.3 4.3 0 0 0 4.646.873 4.27 4.27 0 0 0 1.901-1.567 4.24 4.24 0 0 0 .714-2.349 4.25 4.25 0 0 0-1.296-3.04 4.3 4.3 0 0 0-3.091-1.209M204.971 16.68a10.66 10.66 0 0 0-6.549 2.188V17.17h-6.558v24.076h6.804V25.731a7.4 7.4 0 0 1 2.494-2.017 7.5 7.5 0 0 1 3.119-.779 4.84 4.84 0 0 1 3.46 1.257c.965.959 1.371 2.24 1.371 4.316v12.738h6.8V28.983c0-3.784-.777-6.384-2.51-8.422a10.9 10.9 0 0 0-3.781-2.873 11 11 0 0 0-4.65-1.007M260.885 16.68a10.66 10.66 0 0 0-6.554 2.187V17.17h-6.553v24.076h6.799V25.73a7.4 7.4 0 0 1 2.497-2.017 7.46 7.46 0 0 1 3.121-.779 4.84 4.84 0 0 1 3.455 1.257c.966.96 1.371 2.24 1.371 4.316v12.739h6.8V28.982c0-3.784-.772-6.383-2.51-8.422a10.9 10.9 0 0 0-3.778-2.873 11 11 0 0 0-4.648-1.007M292.64 32.44a6.74 6.74 0 0 1-2.392 2.213 6.8 6.8 0 0 1-3.158.838c-3.711 0-6.404-2.629-6.404-6.235a6.183 6.183 0 0 1 1.802-4.46 6.23 6.23 0 0 1 4.472-1.833 6.7 6.7 0 0 1 3.011.74 6.7 6.7 0 0 1 2.351 2.013l.13.168 4.826-4.216-.116-.148a12.94 12.94 0 0 0-4.55-3.562 13 13 0 0 0-5.657-1.234c-7.321 0-13.054 5.51-13.054 12.546 0 7.127 5.588 12.499 13.03 12.499 4.652 0 8.248-1.765 10.998-5.4l.121-.159-5.255-3.904zM309.831 16.68c-6.757 0-11.829 5.396-11.829 12.547 0 7.357 5.232 12.498 12.712 12.498 3.89 0 7.722-1.654 9.956-4.316l.121-.139-3.924-3.885-.14.149c-.579.628-2.722 2.671-5.863 2.671-3.277 0-5.792-2.134-6.231-5.218h16.496l.028-.163q.161-.914.155-1.841c.019-6.897-5.024-12.302-11.481-12.302m-4.87 9.276a4.98 4.98 0 0 1 1.784-2.71 5.03 5.03 0 0 1 3.086-1.045 4.6 4.6 0 0 1 2.935 1.067 4.55 4.55 0 0 1 1.567 2.688zM93.79 18.868a11.2 11.2 0 0 0-6.8-2.187c-6.685 0-11.926 5.51-11.926 12.546a12.8 12.8 0 0 0 3.118 8.427 12.2 12.2 0 0 0 4.144 3.016 12.3 12.3 0 0 0 5.025 1.056 10.6 10.6 0 0 0 4.044-.782l.121-.048V37.17l2.34 2.12 2.134 1.956h4.343V17.17h-6.544zm-5.956 4.067a7.2 7.2 0 0 1 3.188.729 7.1 7.1 0 0 1 2.526 2.067v6.95a6.8 6.8 0 0 1-2.444 2.077 6.85 6.85 0 0 1-3.13.733c-3.48 0-6.105-2.686-6.105-6.235 0-4.115 3.07-6.321 5.965-6.321M237.093 18.868a11.2 11.2 0 0 0-6.8-2.187c-6.684 0-11.925 5.51-11.925 12.546a12.8 12.8 0 0 0 3.103 8.427 12.2 12.2 0 0 0 4.144 3.016 12.3 12.3 0 0 0 5.025 1.056 10.6 10.6 0 0 0 4.045-.782l.12-.048V37.17c.353.311 1.043.959 2.341 2.12l2.148 1.956h4.343V17.17h-6.544zm-5.96 4.067a7.2 7.2 0 0 1 3.188.729 7.1 7.1 0 0 1 2.526 2.067v6.95a6.8 6.8 0 0 1-2.442 2.076 6.85 6.85 0 0 1-3.127.734c-3.48 0-6.105-2.686-6.105-6.235 0-4.115 3.069-6.321 5.96-6.321"/><path fill="#00f2b1" fill-rule="evenodd" d="m18.19 16.604 4.69 4.652 4.628-4.585-4.69-4.652zM23.005 0l-4.667 4.652 10.665 10.58 4.691-4.652z" clip-rule="evenodd"/><path fill="#48e0ff" fill-rule="evenodd" d="M15.477 4.652 10.787 0 6.152 4.585l4.691 4.652zM0 10.681l10.666 10.575 4.69-4.652L4.691 6.053z" clip-rule="evenodd"/></svg>
